X:1
T:[ID 3-53]
T:[ID 3-53]
T:Bezeichnung standardisiert: March March In dieser Quelle auch als: Marsch
T:Urheber unbekannt Erstbeleg: 1767 (Datum in der schriftlichen Quelle) Datum in der hier transkribierten schriftlichen Quelle: 1799
C:Urheber unbekannt
C:Erstbeleg: 1767 (Datum in der schriftlichen Quelle)
C:Datum in der hier transkribierten schriftlichen Quelle: 1799
%%score 1 2
L:1/8
M:4/4
K:D
V:1 treble nm="Primo"
V:2 treble nm="Secondo"
V:1
 A2 | d2 de dede | f2 fg fgfg | a2 ab a2 gf | e2 ef e2 af | g2 fe f2 ed | e2 ef e2 af | %7
 g2 fe f2 ed | e2 ef e2 ag | fgab a2 ^g2 | a2 aa a2 ^g2 | a6 :: a2 | b2 g2 g2 fg | a2 f2 f2 ef | %15
 g2 e2 e2 de | fefg f2 a2 | bagf edcB | A2 AA A2 ^G2 | A6 a2 | bagf gbag | f2 ef e2 a2 | %22
 bagf gbag | f2 ed e2 A2 | dfed egfe | fagf gba^g | a6 ag | fgab f2 e/d/c | d2 dd d2 c2 | d4 x2 :| %30
V:2
 !fermata!D2 | F2 FA FAFA | d2 de dede | f2 fg f2 ed | A2 Ad A2 fd | e2 dA d2 AF | A2 Ad A2 fd | %7
 e2 dA d2 AF | A2 Ad A2 fe | defg c2 B2 | c2 cc c2 B2 | c6 :: f2 | g2 e2 e2 de | f2 d2 d2 Ad | %15
 e2 A2 A2 FA | dAde d2 f2 | gfed cfed | c2 cc c2 B2 | c6 f2 | gfed egfe | d2 AF A2 f2 | gfed egfe | %23
 d2 AF A2 D2 | F2 F2 A2 A2 | dfed BdcB | c6 fe | defg d2 AG | F2 FF F2 E2 | F6 :| %30

